!!!COM: Haydn, Franz Joseph
!!!CDT: 1732/03/31-1809/05/31
!!!CNT: Austrian
!!!OTL: Sonata No. 62 in E-flat major
!!!SCT: Hob. XVI:52
!!!OMV: Mvmt. 3
!!!OMD: Finale: Presto.
!!!ODT: 1794
**kern	**kern	**dynam
*staff2	*staff1	*staff1/2
*Ipiano	*Ipiano	*Ipiano
*>[A,A,B]	*>[A,A,B]	*>[A,A,B]
*>norep[A,B]	*>norep[A,B]	*>norep[A,B]
*>A	*>A	*>A
*clefF4	*clefG2	*clefG2
*k[b-e-a-]	*k[b-e-a-]	*k[b-e-a-]
*E-:	*E-:	*E-:
*M2/4	*M2/4	*M2/4
*MM144	*MM144	*MM144
!	!	!LO:DY:rj
8r	8g	p
=1	=1	=1
2r	8gL	.
.	8g	.
.	8g	.
.	8gJ	.
=2	=2	=2
*^	*	*
!	!	!	!LO:DY:b=2:rj
8r	[2EE-	(4g	p
8E-L	.	.	.
8E-	.	8b-L)	.
8E-J	.	(8e-J	.
=3	=3	=3	=3
8E-L	2EE-]	8dL	.
8E-	.	8f	.
8E-	.	8a-	.
8E-J	.	8dJ	.
=4	=4	=4	=4
8r	[2EE-	8e-L	.
8E-L	.	8g	.
8E-	.	8B-)	.
8E-J	.	(8B-J	.
=5	=5	=5	=5
8E-L	2EE-]	8A-L	.
8E-	.	8d	.
8E-	.	8f	.
8E-J	.	8dJ	.
=6	=6	=6	=6
8r	[2EE-	8e-L	.
8E-L	.	8g	.
8E-	.	8B-)	.
8E-J	.	(8B-J	.
=7	=7	=7	=7
8E-L	2EE-]	8A-L	.
8E-	.	8d	.
8E-	.	8f	.
8E-J	.	8dJ	.
*v	*v	*	*
=8	=8	=8
4EE-	4e-)	.
8r;	8r;	.
8r	8a-	.
!!LO:LB:g=z
=9	=9	=9
2r	8a-L	.
.	8a-	.
.	8a-	.
.	8a-J	.
=10	=10	=10
*^	*	*
8r	[2FF	(4a-	.
8FL	.	.	.
8F	.	8ccL)	.
8FJ	.	(8fJ	.
=11	=11	=11	=11
8FL	2FF]	8enL	.
8F	.	8g	.
8F	.	8b-	.
8FJ	.	8eJ	.
=12	=12	=12	=12
8r	[2FF	8fL	.
8FL	.	8a-	.
8F	.	8c)	.
8FJ	.	(8cJ	.
=13	=13	=13	=13
8FL	2FF]	8B-L	.
8F	.	8en	.
8F	.	8g	.
8FJ	.	8eJ	.
=14	=14	=14	=14
8r	[2FF	8fL	.
8FL	.	8a-	.
8F	.	8c)	.
8FJ	.	(8cJ	.
=15	=15	=15	=15
8FL	2FF]	8B-L	.
8F	.	8en	.
8F	.	8g	.
8FJ	.	8eJ	.
*v	*v	*	*
=16	=16	=16
4FF	4f)	.
8r;	8r;	.
!	!	!LO:DY:b=2:rj
8BBB- 8BB-	8r	f
=17	=17	=17
8BBB- 8BB-L	4r	.
8BBB- 8BB-	.	.
8BBB- 8BB-	8r	.
8BBB- 8BB-J	(16cccLL	f
.	16bb-JJ	.
!!LO:LB:g=z
=18	=18	=18
(4BBB- 4BB-	16aa-LL	.
.	16gg	.
.	16ff	.
.	16ee-JJ	.
8FL)	16ddLL	.
.	16ee-	.
(8AA-J	16ff	.
.	16ddJJ	.
=19	=19	=19
8GGL	16ee-LL	.
.	16gg	.
8BB-	16ff	.
.	16ee-JJ	.
8E-	16ddLL	.
.	16cc	.
8GGJ	16b-	.
.	16ee-JJ	.
=20	=20	=20
8AA-L	16ddLL	.
.	16ee-	.
8D	16ff	.
.	16ggJJ	.
8F)	16aa-LL	.
.	16ff	.
(8AA-J	16ee-	.
.	16ddJJ	.
=21	=21	=21
8GGL	16ee-LL	.
.	16gg	.
8BB-	16ff	.
.	16ee-JJ	.
8E-	16ddLL	.
.	16cc	.
8GGJ	16b-	.
.	16ee-JJ	.
=22	=22	=22
8AA-L	16ddLL	.
.	16ee-	.
8D	16ff	.
.	16ggJJ	.
8F)	16aa-LL	.
.	16ff	.
(8AA-J	16ee-	.
.	16ddJJ	.
=23	=23	=23
8GGL<	16ee-LL	.
.	16ff	.
8BB-	16gg	.
.	16ffJJ	.
8E-	16ee-LL	.
.	16dd	.
8GJ)	16cc	.
.	16b-JJ	.
!!LO:LB:g=z
=24	=24	=24
(8AA-L	16ccLL	.
.	16ee-	.
8C	16ff	.
.	16ee-JJ	.
8F	16ddLL	.
.	16cc	.
8A-J)	16b-	.
.	16a-JJ	.
=25	=25	=25
8B-L	16gLL	.
.	16b-	.
8B-	16g	.
.	16b-JJ	.
8B-	16fLL	.
.	16a-	.
8B-J	16f	.
.	16a-JJ	.
=26	=26	=26
8BB-L	16e-LL	.
.	16g	.
8BB-	16e-	.
.	16gJJ	.
8BB-	16dLL	.
.	16f	.
8BB-J	16d	.
.	16fJJ	.
=27	=27	=27
8E-'L	16e-LL	.
.	16B-	.
8G'J	16e-	.
.	16B-JJ	.
8E-'L	16e-LL	.
.	16B-	.
8G'J	16e-	.
.	16B-JJ	.
=28	=28	=28
4E-	4e-)	.
4r	8r	.
!	!	!LO:DY:rj
.	(8gg	pf
=29	=29	=29
2r	8aa-L	.
.	8aan	.
.	8bb-	.
.	8bbnJ	.
*clefG2	*	*
=30	=30	=30
*^	*	*
8r	2e-	8cccL	pf
(8gL	.	8ggJ)	.
8cc	.	8r	.
8gJ)	.	(8gg	.
!!LO:LB:g=z
=31	=31	=31	=31
8r	2d	8ggL	.
(8gL	.	8ff	.
8bn	.	8aa-	.
8gJ)	.	8ffJ	.
=32	=32	=32	=32
8r	2c	8ffL	.
(8e-L	.	8ee-J)	.
8g	.	8r	.
8e-J)	.	(8gg	.
=33	=33	=33	=33
8r	2B-	8aa-L	<
(8e-L	.	8aan	.
8g	.	8bb-	.
8e-J)	.	8bbnJ	.
=34	=34	=34	=34
8r	2An	8cccL)	[
.	.	(ddd8q	.
(<8cL	.	()32cccLL	f
.	.	32bbn	.
.	.	32ccc	.
.	.	32dddJJJ	.
8f	.	[4eee-)	.
8cJ)	.	.	.
=35	=35	=35	=35
8r	2An	(16eee]-LL	.
.	.	16ddd	.
(<8cL	.	16ccc	.
.	.	16bb-XJJ	.
8f	.	16aanLL	.
.	.	16gg	.
8cJ)	.	16ff	.
.	.	16ee-JJ	.
*v	*v	*	*
=36	=36	=36
(8B-L	8dd)	.
8d	(4fff	.
8c	.	.
8e-J	[8aan	.
=37	=37	=37
8dL	8aa]	.
8fJ)	4bb-	.
*clefF4	*	*
(8DL	.	.
8B-J	[8aa-	.
!!LO:LB:g=z
=38	=38	=38
8E-L	8aa-]	.
8B-	4gg	.
8F	.	.
8B-J	[8ff	.
=39	=39	=39
8GL	8ff]	.
8B-	4een	.
8G-	.	.
8B-J	[8ee-	.
=40	=40	=40
8FL	8ee-]	.
8B-	4dd	.
8En	.	.
8B-J	[8dd-	.
=41	=41	=41
8EnL	8dd-]	.
8c	4cc	.
8E	.	.
8d-J	[8b-	.
=42	=42	=42
8FL	8b-]	.
8c	4an	.
8En	.	.
8d-J	[8b-	.
=43	=43	=43
8FL	8b-]	.
8c	4an	.
8En	.	.
8d-J	8b-	.
=44	=44	=44
4F 4c)	8anL	.
.	8ff)	.
4r	8ffJ	.
!	!	!LO:DY:rj
.	8ff	fz
=45	=45	=45
2r	8ffL	.
.	8ff	.
.	8ffJ	.
!	!	!LO:DY:rj
.	8een 8ff	fz
=46	=46	=46
4r	8een 8ffL	.
.	8ee 8ff	.
8r	8ee 8ffJ	.
*clefG2	*	*
!	!	!LO:DY:rj
(<8f	8ee- 8ff	fz
!!LO:LB:g=z
=47	=47	=47
8g-L	8ee- 8ffL	.
8gn	8ee- 8ff	.
8a-	8ee- 8ffJ	.
!	!	!LO:DY:rj
8anJ	8ee- 8ff	fz
=48	=48	=48
4.b-)	8dd 8ffL	.
.	8dd 8ff	.
.	8dd 8ffJ	.
8B- 8d 8f	8ff 8bb- 8ddd 8fff	ff
=49	=49	=49
8B- 8d 8fL	8ff 8bb- 8ddd 8fffL	.
8B- 8d 8f	8ff 8bb- 8ddd 8fff	.
8B- 8d 8f	8ff 8bb- 8ddd 8fff	.
8B- 8d 8fJ	8ff 8bb- 8ddd 8fffJ	.
*clefF4	*	*
=50	=50	=50
4F (4c	4ee- (4aan	fz
8B-' 8d'L)	8dd' 8bb-'L)	.
8B-' 8d'J	8dd' 8ff'J	.
=51	=51	=51
4F (4c	4ee- (4aan	fz
8B-' 8d'L)	8dd' 8bb-'L)	.
8B-' 8d'J	8dd' 8ff'J	.
=52	=52	=52
4F (4c	4ee- (4aan	fz
8B-' 8d'L)	8dd' 8bb-'L)	.
8A-X' 8f'J	8dd' 8bbn'J	.
=53	=53	=53
[2A- 2f	2dd 2bbn	.
=54	=54	=54
*^	*^	*
2e-	(4A-]	(4ccc	2cc	.
.	4G-)	4bb-X)	.	.
*v	*v	*	*	*
*	*v	*v	*
=55	=55	=55
2F; 2e-;	2cc; 2aan;	.
=56	=56	=56
4Gn; 4d;	4b-; 4bb-;	.
*clefG2	*	*
4dd	4b- 4ff#	p
!!LO:LB:g=z
=57	=57	=57
(2dd	[2b- (2ff#	.
=58	=58	=58
4ee-)	4b-] 4gg)	.
*clefF4	*	*
4E- 4e-	4bn 4gg	f
=59	=59	=59
*	*^	*
[2E- [2e-	[2gg	2bn	.
=60	=60	=60	=60
2E-_ 2e-_	2gg_	(8ddL	.
.	.	8cc	.
.	.	8ee-	.
.	.	8ddJ	.
=61	=61	=61	=61
2E-_ 2e-_	4gg]	8ffL	.
.	.	8ee-)	.
.	(8aa-XL	8ff	.
.	8ggJ	8ee-J	.
*	*v	*v	*
=62	=62	=62
2E-] 2e-]	8dd 8ff#L	.
.	8ee- 8gg	.
.	8dd 8ffn	.
.	8cc 8ee-J	.
=63	=63	=63
2F 2f	4.b- 4.dd)	.
.	8dd (8ff	.
=64	=64	=64
2FF 2F	8dd 8ffL	.
.	8cc 8ee-	.
.	8b- 8dd	.
.	8an 8ccJ	.
=65	=65	=65
4.ryy	16b-LL)	f
.	(16ff	.
.	16dd	.
.	16b-JJ	.
.	16fLL	.
.	16dJJ	.
8ryy	16B-<LL<	.
.	16d<JJ	.
!!LO:LB:g=z
=66	=66	=66
2ryy	16anLL	.
.	16ff	.
.	16ee-	.
.	16ccJJ	.
.	16aLL	.
.	16fJJ	.
.	16c<LL<	.
.	16e-<JJ)	.
=67	=67	=67
2ryy	(16b-LL	.
.	16ff	.
.	16dd	.
.	16b-JJ	.
.	16fLL	.
.	16dJJ	.
.	16B-<LL<	.
.	16d<JJ	.
=68	=68	=68
2ryy	16anLL	.
.	16ff	.
.	16ee-	.
.	16ccJJ	.
.	16aLL	.
.	16fJJ	.
.	16c<LL<	.
.	16e-<JJ)	.
=69	=69	=69
2ryy	(16ffLL>	.
.	16b-JJ	.
.	16dLL<	.
.	16b-JJ	.
.	16ggLL>	.
.	16b-JJ	.
.	16e-LL<	.
.	16b-JJ	.
=70	=70	=70
2ryy	16aanLL>	.
.	16b-JJ	.
.	16fLL<	.
.	16b-JJ	.
.	16bb-LL>	.
.	16b-JJ	.
.	16gLL<	.
.	16b-JJ)	.
=71	=71	=71
2ryy	(16ffLL>	.
.	16b-JJ	.
.	16dLL<	.
.	16b-JJ	.
.	16ggLL>	.
.	16b-JJ	.
.	16e-LL<	.
.	16b-JJ	.
!!LO:LB:g=z
=72	=72	=72
2ryy	16aanLL>	.
.	16b-JJ	.
.	16fLL<	.
.	16b-JJ	.
.	16bb-LL>	.
.	16b-JJ	.
.	16gLL<	.
.	16b-JJ)	.
=73	=73	=73
2ryy	(16ddd-LL>	.
.	16dd-JJ	.
.	16g-LL<	.
.	16b-JJ	.
.	16bb-LL>	.
.	16b-JJ	.
.	16g-LL<	.
.	16b-JJ	.
=74	=74	=74
2ryy	16eeenLL>	.
.	16eenJJ	.
.	16g-LL<	.
.	16b-JJ	.
.	16bb-LL>	.
.	16b-JJ	.
.	16g-LL<	.
.	16b-JJ)	.
=75	=75	=75
8ryy	(>16aanLL>	ff
.	16anJJ	.
16f>LL	8ryy	.
16FJJ	.	.
8ryy	16ffLL>	.
.	16fJJ	.
16cLL	8ryy	.
16CJJ	.	.
=76	=76	=76
8ryy	16ccLL	.
.	16cJJ	.
16AnLL	8ryy	.
16AAnJJ	.	.
8ryy	16anLL	.
.	16AnJJ	.
16FLL<	8ryy	.
16FFJJ	.	.
*	*clefF4	*clefF4
=77	=77	=77
4.r;<	4.FFF;)	.
*clefG2	*	*
!	!	!LO:DY:b=2:rj
8e-	8r	p
*	*clefG2	*clefG2
!!LO:LB:g=z
=78	=78	=78
8e-L	4r	.
8e-	.	.
8e-	8r	.
!	!	!LO:DY:rj
8e-J	8cc'	fz
=79	=79	=79
8e-L	(8fL	.
8e-	8g-	.
8e-	8f'J)	.
8e-J	8ee-'	fz
=80	=80	=80
8e-L	(8anL	.
8e-	8b-	.
8e-	8a'J)	.
8e-J	8gg-'	fz
=81	=81	=81
8e-L	(8ccL	.
8e-	8dd-	.
8e-	8cc'J)	.
8e-J	8aan'	fz
=82	=82	=82
8e-L	(8ffL	.
8e-	8gg-	.
8e-	8ff'J)	.
8e-J	8fff'	fz
=83	=83	=83
8d	8r	.
8r	8ddd 8fff	.
8e-	8r	.
8r	8ccc 8eee-	.
=84	=84	=84
8f	8r	.
8r	8bb- 8ddd	.
8f	8r	.
8r	8aan 8ccc	.
=85	=85	=85
4B-	8bb-	.
!	!	!LO:DY:rj
.	8e-L	p
4r	8e-	.
.	8e-J	.
=86	=86	=86
4r	8e-L	.
.	8e-	.
8r	8e-	.
*clefF4	*	*
!	!	!LO:DY:b=2:rj
8C'	8e-J	fz
!!LO:LB:g=z
=87	=87	=87
(8FFL	8e-L	.
8GG-	8e-	.
8FF'J)	8e-	.
!	!	!LO:DY:b=2
8E-'	8e-J	fz
=88	=88	=88
(8AAnL	8e-L	.
8BB-	8e-	.
8AA'J)	8e-	.
!	!	!LO:DY:b=2
8G-'	8e-J	fz
=89	=89	=89
(8CL	8e-L	.
8D-	8e-	.
8C'J)	8e-	.
!	!	!LO:DY:b=2
8An'	8e-J	fz
=90	=90	=90
(8FL	8e-L	.
8G-	8e-	.
8F'J)	8e-	.
!	!	!LO:DY:b=2
8An'	8e-J	fz
=91	=91	=91
!	!	!LO:DY:rj
8B-'L	(16dLL	f
.	16b-	.
8BB-'	16d	.
.	16b-JJ	.
8B-'	16e-LL	.
.	16an	.
8BB-'J	16e-	.
.	16aJJ	.
=92	=92	=92
8B-'L	16anLL	.
.	16ee-	.
8BB-'	16a	.
.	16ee-JJ	.
8B-'	16b-LL	.
.	16dd	.
8BB-'J	16b-	.
.	16ddJJ)	.
=93	=93	=93
8B-'L	(16ddLL	.
.	16bb-	.
8BB-'	16dd	.
.	16bb-JJ	.
8B-'	16ee-LL	.
.	16aan	.
8BB-'J	16ee-	.
.	16aaJJ	.
!!LO:LB:g=z
=94	=94	=94
8B-'L	16aanLL	.
.	16eee-	.
8BB-'J	16aa	.
.	16eee-JJ	.
4B-	16bb-LL	.
.	16ddd	.
.	16bb-	.
.	16dddJJ)	.
=95	=95	=95
8D' 8F' 8B-' 8d'	8ff' 8bb-' 8ddd' 8fff'	.
8r	8r	.
8E-' 8G' 8c'	8gg' 8ccc' 8eee-'	.
8r	8r	.
=96	=96	=96
8F' 8B-' 8d'	8ff' 8bb-' 8ddd'	.
8r	8r	.
8F' 8An' 8c'	8cc' 8ee-' 8aan'	.
8r	8r	.
=97	=97	=97
(16B-LL	4dd 4ff 4bb-	ff
16An	.	.
16B-	.	.
16AJJ	.	.
16B-LL	8r	.
16A	.	.
16B-	8ee- (8gg	.
16AJJ	.	.
=98	=98	=98
16B-LL	8dd 8ffL	.
16An	.	.
16B-	8cc 8ee-J	.
16AJJ	.	.
16B-LL	8b- 8ddL	.
16A	.	.
16B-	8an 8ccJ	.
16AJJ	.	.
=99	=99	=99
4B-)	(<16b-LL)	.
.	16an	.
.	16b-	.
.	16aJJ	.
8r	16b-LL	.
.	16a	.
8E- (8G	16b-	.
.	16aJJ	.
!!LO:LB:g=z
=100	=100	=100
8D 8FL	16b-LL	.
.	16an	.
8E- 8G	16b-	.
.	16aJJ	.
8D 8F	16b-LL	.
.	16a	.
8C 8E-J	16b-	.
.	16aJJ	.
=101	=101	=101
4BB-' 4D')	4b-')	.
4BB-' 4D' 4F' 4B-'	4dd' 4ff' 4bb-'	.
=102	=102	=102
4r	4r	.
8r	8r	.
=:|!	=:|!	=:|!
*>B	*>B	*>B
8r	8f'	p
=103	=103	=103
(2CC 2C	(8A-XL	.
.	8B-	.
.	8A-'J)	.
.	8f'	.
=104	=104	=104
4.BBBn) 4.BBn	(8GL	.
.	8A-	.
.	8G'J)	.
(8c	(>8a-	.
=105	=105	=105
8BnL	8gL	.
8c	8a-	.
8B	8g	.
8dJ	8fJ	.
=106	=106	=106
4c)	8e-L	.
.	8cc)	.
8r	8ccJ	.
*clefG2	*	*
!	!	!LO:DY:rj
(8e-	8cc	fz
=107	=107	=107
8enL	8ccL	.
8f	8cc	.
8f#	8cc	.
8gJ	8ccJ	.
!!LO:LB:g=z
=108	=108	=108
*	*^	*
4.a-)	4.ryy	8ccL	.
.	.	8cc	.
.	.	8ccJ	.
(<8fn	(8dd	8cc	fz
=109	=109	=109	=109
8f#L	8ee-L	8ccL	.
8g	8een	8cc	.
8a-X	8ff	8cc	.
8anJ	8ff#J	8ccJ	.
=110	=110	=110	=110
4.b-)	4.gg)	8ccL	.
.	.	8cc	.
.	.	8ccJ	.
(8g	(8een	8cc	fz
=111	=111	=111	=111
8a-L	8ffL	8ccL	<
8en	8gg	8cc	.
8f	8aa-	8cc	.
8gJ	8bb-J	8ccJ	.
=112	=112	=112	=112
4.a-)	4.ccc)	8ccL	[
.	.	8cc	.
.	.	8cc	.
(8f	(8aa-	8ccJ	.
=113	=113	=113	=113
4.g)	4.bb-)	8ccL	.
.	.	8cc	.
.	.	8cc	.
(8en	(8gg	8ccJ	.
=114	=114	=114	=114
[2f)	[2aa-)	8ccL	.
.	.	8cc	.
.	.	8cc	.
.	.	8ccJ	.
=115	=115	=115	=115
2f]	2aa-]	8dd-L	.
.	.	8dd-	.
.	.	8dd-	.
.	.	8dd-J	.
=116	=116	=116	=116
(<4en	2gg	8dd-L	.
.	.	8dd-	.
4e-	.	8cc	.
.	.	8ccJ	.
!!LO:LB:g=z
=117	=117	=117	=117
4dn	(2ff	8ccL	.
.	.	8cc	.
4d-	.	8bn	.
.	.	8bJ	.
*	*v	*v	*
*clefF4	*	*
=118	=118	=118
(16cLL)	4cc 4een)	f
16Bn	.	.
16c	.	.
16BJJ	.	.
16cLL	8r	.
16B	.	.
16c	(8aa- 8ccc	.
16BJJ	.	.
=119	=119	=119
16cLL	8gg 8bb-L	.
16Bn	.	.
16c	8aa- 8ccc	.
16BJJ	.	.
16cLL	8gg 8bb-	.
16B	.	.
16c	8ff 8aa-J	.
16BJJ	.	.
=120	=120	=120
16cLL	8een 8gg)	>
16Bn	.	.
16c	8r	.
16BJJ	.	.
16cLL	8r	.
16B	.	.
*	*clefF4	*clefF4
!	!	!LO:DY:rj
16c	(>8AA- 8C	] p
16BJJ	.	.
=121	=121	=121
16cLL	8GG 8BB-L	.
16Bn	.	.
16c	8FF 8AA-	.
16BJJ	.	.
16cLL	8EEn 8GG	.
16B	.	.
16c	8DD 8FFJ	.
16BJJ	.	.
=122	=122	=122
4c)	4CC 4EEn)	.
4r	8r	.
*	*clefG2	*clefG2
.	8ccc	<
=123	=123	=123
2r	8cccL	.
.	8ccc	.
.	8ccc	.
.	8cccJ	[[
!!LO:LB:g=z
=124	=124	=124
*^	*	*
!	!	!	!LO:DY:rj
(8cL	4A-	(16ddd-LL	f
.	.	16ccc	.
8e-X	.	16bb-	.
.	.	16cccJJ	.
8c	4A-	8eee-XL	.
8e-J)	.	8aa-J	.
=125	=125	=125	=125
8d-L	4A- 4B-	8ggL	.
8e-	.	8bb-	.
8d-	4A- 4B-	8ddd-	.
8e-J	.	8ggJ	.
=126	=126	=126	=126
8cL	4A-	8aa-L	.
8e-	.	8ccc	.
8c	4A-	8ee-)	.
8e-J	.	(8ee-J	.
=127	=127	=127	=127
8d-L	4A- 4B-	8dd-L	.
8e-	.	8gg	.
8d-	4A- 4B-	8bb-	.
8e-J	.	8ggJ	.
=128	=128	=128	=128
4c	4A-	(16aa-LL)	.
.	.	16bb-	.
.	.	16ccc	.
.	.	16bb-JJ	.
4r	4ryy	16aa-LL	.
.	.	16gg	.
.	.	16ff	.
.	.	16ee-JJ	.
*v	*v	*	*
=129	=129	=129
4E- 4G 4B- 4d-	16dd-LL	.
.	16cc	.
.	16b-	.
.	16a-JJ	.
4r	16gLL	.
.	16f	.
.	16e-	.
.	16d-JJ	.
=130	=130	=130
4AA- 4A-	16cLL	.
.	16d-	.
.	16e-	.
.	16d-JJ	.
8r	16cLL)	.
.	(16cc	.
8A-' 8c'	16b-	.
.	16a-JJ	.
=131	=131	=131
4B- 4d-	16gLL	.
.	16a-	.
.	16b-	.
.	16a-JJ	.
8r	16gLL)	.
.	(16ff	.
8G' 8B-'	16ee-	.
.	16dd-JJ	.
!!LO:LB:g=z
=132	=132	=132
4A- 4c	16ccLL	.
.	16dd-	.
.	16ee-	.
.	16dd-JJ	.
8r	16ccLL)	.
.	(16ccc	.
8A-' 8c'	16bb-	.
.	16aa-JJ	.
=133	=133	=133
4B- 4d-	16ggLL	.
.	16aa-	.
.	16bb-	.
.	16aa-JJ	.
8r	16ggLL)	.
.	(16fff	.
8G' 8B-'	16eee-	.
.	16ddd-JJ	.
=134	=134	=134
4A- 4c	16cccLL	.
.	16ddd-	.
.	16eee-	.
.	16ddd-JJ	.
8r	16cccLL	.
.	16bb-	.
8B-' 8d-'	16aa-	.
.	16ggJJ	.
=135	=135	=135
4c 4e-	16aa-LL	.
.	16bb-	.
.	16ccc	.
.	16bb-JJ	.
8r	16aa-LL	.
.	16gg	.
*clefG2	*	*
8c-' 8a-'	16ff	.
.	16ee-JJ	.
=136	=136	=136
4.B- 4.a-	16ddnLL	.
.	16ee-	.
.	16ff	.
.	16ee-JJ	.
.	16ddLL	.
.	16aa-	.
8c-' 8a-'	16ff	.
.	16ee-JJ	.
=137	=137	=137
4.B- 4.a-	16ddLL	.
.	16ee-	.
.	16ff	.
.	16ee-JJ	.
.	16ddLL	.
.	16aa-	.
8c-' 8a-'	16ff	.
.	16ee-JJ	.
!!LO:LB:g=z
=138	=138	=138
[2B- 2a-	16ddLL	.
.	16ff	.
.	16ee-	.
.	16ggJJ	.
.	16ffLL	.
.	16aa-	.
.	16gg	.
.	16bb-JJ	.
=139	=139	=139
2B-] 2d	16aa-LL	.
.	16gg	.
.	16ff	.
.	16ee-JJ	.
.	16ddLL	.
.	16cc	.
.	16b-	.
.	16a-JJ	.
*clefF4	*	*
=140	=140	=140
4E- 4G 4B- 4e-	16gLL)	.
.	(>16b-	.
.	16cc	.
.	16b-JJ	.
4r	16a-LL	.
.	16g	.
.	16f	.
.	16e-JJ	.
=141	=141	=141
4BB- 4A-	16dLL	.
.	16e-	.
.	16f	.
.	16e-JJ	.
4r	16dLL	.
.	16c	.
.	16B-	.
.	16A-JJ	.
=142	=142	=142
4EE- 4E-	16GLL	.
.	16A-	.
.	16B-	.
.	16A-JJ	.
8r	16GLL)	.
.	(>16g	.
8E-' 8G'	16f	.
.	16e-JJ	.
=143	=143	=143
4F 4A-	16dLL	.
.	16e-	.
.	16f	.
.	16e-JJ	.
8r	16dLL)	.
.	(16cc	.
8D' 8F'	16b-	.
.	16a-JJ	.
!!LO:LB:g=z
=144	=144	=144
4E- 4G	16gLL	.
.	16a-	.
.	16b-	.
.	16a-JJ	.
8r	16gLL)	.
.	(16gg	.
*clefG2	*	*
8e-' 8g'	16ff	.
.	16ee-JJ	.
=145	=145	=145
4f 4a-	16ddLL	.
.	16ee-	.
.	16ff	.
.	16ee-JJ	.
4r	16ddLL	.
.	16ccc	.
.	16aa-	.
.	16ffJJ	.
=146	=146	=146
2ryy	(16ggLL>)	mf
.	16ee-JJ	.
.	16ddLL	.
.	16ee-JJ	.
.	16ggLL>	.
.	16ee-JJ	.
.	16ddLL	.
.	16ee-JJ	.
=147	=147	=147
2ryy	16aa-LL>	.
.	16ee-JJ	.
.	16ccLL	.
.	16ee-JJ	.
.	16aa-LL>	.
.	16ee-JJ	.
.	16ccLL	.
.	16ee-JJ	.
=148	=148	=148
2ryy	16bb-LL>	.
.	16ee-JJ	.
.	16gLL	.
.	16ee-JJ	.
.	16bb-LL>	.
.	16ee-JJ	.
.	16gLL	.
.	16ee-JJ	.
=149	=149	=149
2ryy	16cccLL>	.
.	16ee-JJ	.
.	16a-LL	.
.	16ee-JJ)	.
.	(16bb-LL>	.
.	16ee-JJ	.
.	16g-LL	.
.	16ee-JJ	.
*clefF4	*	*
!!LO:LB:g=z
=150	=150	=150
2ryy	16aanLL>	.
.	16ee-JJ	.
.	16fLL	.
.	16ee-JJ	.
.	16bb-LL>	.
.	16ee-JJ	.
.	16g-LL	.
.	16ee-JJ	.
=151	=151	=151
2ryy	16aanLL>	.
.	16ee-JJ	.
.	16fLL	.
.	16ee-JJ)	.
.	(16cccLL>	.
.	16ee-JJ	.
.	16anLL	.
.	16ee-JJ	.
=152	=152	=152
2ryy	16ffLL>	.
.	16ddJJ	.
.	16b-LL	.
.	16ddJJ	.
.	16ggLL>	.
.	16ee-JJ	.
.	16b-LL	.
.	16ee-JJ	.
=153	=153	=153
2ryy	16aa-LL>	>
.	16ffJJ	.
.	16b-LL	.
.	16ffJJ)	.
.	(16ffLL>	.
.	16ddJJ	.
.	16b-LL	.
.	16ddJJ	]]
=154	=154	=154
2ryy	16ggLL>	p
.	16b-JJ	.
.	16e-LL<	.
.	16b-JJ	.
.	16ffLL>	.
.	16a-JJ	.
.	16e-LL<	.
.	16a-JJ	.
=155	=155	=155
2ryy	16ee-LL>	.
.	16gJJ	.
.	16e-LL<	<
.	16gJJ)	.
.	(16ggLL>	.
.	16b-JJ	.
.	16e-LL<	[
.	16b-JJ	.
!!LO:LB:g=z
=156	=156	=156
2ryy	16aa-LL>	>
.	16ccJJ	.
.	16e-LL<	.
.	16ccJJ	]
.	16ggLL>	.
.	16b-JJ	.
.	16e-LL<	.
.	16b-JJ	.
=157	=157	=157
2ryy	16ffLL>	.
.	16a-JJ	.
.	16e-LL<	.
.	16a-JJ)	.
.	(16aa-LL>	.
.	16ccJJ	.
.	16e-LL<	.
.	16ccJJ	.
=158	=158	=158
2ryy	16ggLL>	.
.	16b-JJ	.
.	16e-LL<	.
.	16b-JJ	.
.	16ffLL>	.
.	16a-JJ	.
.	16e-LL<	.
.	16a-JJ	.
=159	=159	=159
2ryy	16ee-LL>	.
.	16gJJ	.
.	16e-LL<	.
.	16gJJ)	.
.	(16bb-LL>	<
.	16ggJJ	.
.	16ee-LL	.
.	16ggJJ	.
=160	=160	=160
2ryy	16bb-LL>	.
.	16ffJJ	.
.	16ddLL	.
.	16ffJJ	.
.	16bb-LL>	.
.	16ee-JJ	.
.	16ccLL	.
.	16ee-JJ	.
=161	=161	=161
2ryy	16bb-LL>	.
.	16ddJJ	.
.	16b-LL	.
.	16ddJJ)	.
.	(16bb-LL>	.
.	16ggJJ	.
.	16ee-LL	.
.	16ggJJ	.
=162	=162	=162
2ryy	16bb-LL>	.
.	16ffJJ	.
.	16ddLL	.
.	16ffJJ	.
.	16bb-LL>	.
.	16ee-JJ	.
.	16ccLL	.
.	16ee-JJ	.
!!LO:LB:g=z
=163	=163	=163
2ryy	16bb-LL>	.
.	16ddJJ	.
.	16b-LL	.
.	16ddJJ)	.
.	(16bb-LL>	f
.	16ddJJ	.
.	16a-LL	.
.	16ddJJ	.
=164	=164	=164
2ryy	16bbnLL>	.
.	16ddJJ	.
.	16gLL	.
.	16ddJJ	.
.	16bb-LL>	.
.	16ddJJ	.
.	16gLL	.
.	16ddJJ	.
=165	=165	=165
2ryy	16cccLL>	<
.	16ee-JJ	.
.	16f#LL	.
.	16ee-JJ	.
.	(16cccLL>)	.
.	16ee-JJ	.
.	16f#LL	.
.	16ee-JJ	.
=166	=166	=166
2ryy	16bbnLL>	.
.	16ddJJ	.
.	16gLL	.
.	16ddJJ	.
.	(16bbLL>)	.
.	16ddJJ	.
.	16gLL	.
.	16ddJJ	.
=167	=167	=167
2ryy	16cccLL>	.
.	16ee-JJ	.
.	16f#LL	.
.	16ee-JJ)	.
.	(16cccLL>	.
.	16ee-JJ	.
.	16f#LL	.
.	16ee-JJ	.
=168	=168	=168
8ryy	(>16bbnLL>)	ff
.	16bnJJ	.
16gLL	8ryy	.
16GJJ	.	.
8ryy	16ggLL>	.
.	16gJJ	.
16dLL	8ryy	.
16DJJ	.	.
=169	=169	=169
8ryy	16ddLL	.
.	16dJJ	.
16BnLL	8ryy	.
16BBnJJ	.	.
8ryy	16bnLL	.
.	16BnJJ	.
16GLL<	8r	.
16GGJJ	.	.
*	*clefF4	*
!!LO:LB:g=z
=170	=170	=170
4.GG;	4.GGG;)	.
*	*clefG2	*
8r	8g	fz
=171	=171	=171
!	!	!LO:DY:a:rj
2r	8gL	mf
.	8g	.
.	8gJ	.
.	8g 8a-	fz
=172	=172	=172
4r	8g 8a-L	.
.	8g 8a-	.
8r	8g 8a-J	.
(8F	8f 8a-	fz
=173	=173	=173
8e-L	8f 8a-L	.
8d	8f 8a-	.
8d-	8f 8a-	.
8cJ	8f 8a-J	.
=174	=174	=174
4Bn)	4f 4g	.
4r	8r	.
!	!	!LO:DY:rj
.	8cc	fz
=175	=175	=175
2r	8ccL	.
.	8cc	.
.	8ccJ	.
.	8cc 8dd-	fz
=176	=176	=176
4r	8cc 8dd-L	.
.	8cc 8dd-	.
8r	8cc 8dd-J	.
*	*	*^
!	!	!LO:DY:rj	!LO:DY:b=2:rj
(8E-	8b- 8dd-	fz	f
*	*	*v	*v
=177	=177	=177
8F-L	8b- 8dd-L	.
8Fn	8b- 8dd-	.
8G-	8b- 8dd-	.
8GnJ	8b- 8dd-J	.
=178	=178	=178
4A-)	8a- 8ccL	.
.	8a- 8cc	.
8r	8a- 8ccJ	ff
8A- 8c 8e-	8ee- 8aa- 8ccc	.
!!LO:LB:g=z
=179	=179	=179
8A- 8c 8e-L	8ee- 8aa- 8cccL	.
8A- 8c 8e-	8ee- 8aa- 8ccc	.
8A- 8c 8e-	8ee- 8aa- 8ccc	.
8A- 8c 8e-J	8ee- 8aa- 8cccJ	.
=180	=180	=180
(<4B- [4e-	((4dd- 4gg	.
8c') 8e-']	8cc') 8aa-')	.
8r	8ccc 8eee-	p
=181	=181	=181
2r	8ccc 8eee-L	.
.	8ccc 8eee-	.
.	8ccc 8eee-	.
.	8ccc 8eee-J	.
*clefG2	*	*
=182	=182	=182
(4ee-	4gg (4bb-	p
8a-')	8aa-' 8ccc')	.
8r	8aa- 8ccc	.
=183	=183	=183
2r	8aa- 8cccL	.
.	8aa- 8ccc	.
.	8aa- 8ccc	.
.	8aa- 8cccJ	.
=184	=184	=184
(4cc	4een ((4gg	.
8f')	8ff') 8aa-')	.
8r	8r	.
=185	=185	=185
4r;	4r;	.
8r	8r	.
*clefF4	*	*
(8f	8ff 8aa-	.
=186	=186	=186
8enL	8ff 8aa-L	.
8e-	8ff 8aa-	.
8d	8ff 8aa-	.
8d-J	8ff 8aa-J	.
=187	=187	=187
8cL	((4ff 4aa-	.
8Bn	.	.
8c)	8een 8ggL))	.
(8e-XJ	8ee- 8gg-J	.
!!LO:LB:g=z
=188	=188	=188
8dnL	8ee- 8gg-L	.
8d-	8ee- 8gg-	.
8c	8ee- 8gg-	.
8c-J	8ee- 8gg-J	.
=189	=189	=189
8B-L	((4ee- 4gg-	.
8AnJ	.	.
8B-)	8ddn 8ff))	.
*clefG2	*	*
8b- 8dd-	(8bb-	.
=190	=190	=190
8b- 8dd-L	8aanL	mf
8b- 8dd-	8aa-	.
8b- 8dd-	8gg	.
8b- 8dd-J	8gg-J	.
=191	=191	=191
((4b- 4dd-	8ffL	.
.	8een	.
8a- 8ccL))	8ff)	.
8a- 8cc-J	(8aa-J	<
=192	=192	=192
8a- 8cc-L	8ggnL	.
8a- 8cc-	8gg-	.
8a- 8cc-	8ff	.
8a- 8cc-J	8ff-J	.
=193	=193	=193
((4a- 4cc-	8ee-L	.
.	8ddn	.
8g 8b-))	8ee-J)	.
8r	(8eee-'	fz
=194	=194	=194
2r	8ddd'L	.
.	8ddd-'	.
.	8ccc'	.
.	8ccc-'J	.
=195	=195	=195
2cn; 2e-;	2bb-;)	f
=196	=196	=196
2c::; 2e-::; 2f::; 2an::;	2cc::; 2ee-::; 2ff::; 2aan::;	.
=197	=197	=197
2r	4r	.
.	8r	.
.	(8aa-X'	p
!!LO:LB:g=z
=198	=198	=198
2r	8gg'L	.
!	!LO:TX:c:i:t=rit.	!
.	8gg-'	.
.	8ff'	.
.	8ff-J)	.
=199	=199	=199
4.B-; 4.f; 4.a-X;	(4ee-;	.
.	8dd)	.
8r	(8ccc'	f
=200	=200	=200
!	!LO:TX:tempo:a:t=Adagio.	!
2r	8bbn'L	.
.	8bb-'	.
.	8aan'	.
.	8aa-'J	.
=201	=201	=201
!	!	!LO:DY:t=pi&ugrave; %s
2r	8gg'L	f
.	8gg-'	.
.	8ff'	.
.	8ff-'J)	.
=202	=202	=202
[2B-; [2f; [2a-;	2ee-;	ff
=203	=203	=203
.	(dd16qLL	.
.	ee-16q	.
.	ff16q	.
.	ee-16q	.
.	dd16qJ	.
.	ff8q	.
.	ee-8q	.
.	dd8qJ	.
4.B-;] 4.f;] 4.a-;]	4.dd;)	.
=||	=||	=||
!	!LO:TX:tempo:a:t=Tempo I.	!
8r	8g	p
=204	=204	=204
2r	8gL	.
.	8g	.
.	8g	.
.	8gJ	.
*clefF4	*	*
=205	=205	=205
*^	*	*
!	!	!	!LO:DY:b=2:rj
8r	[2EE-	(4g	p
8E-L	.	.	.
8E-	.	8b-L)	.
8E-J	.	(8e-J	.
=206	=206	=206	=206
8E-L	2EE-]	8dL	.
8E-	.	8f	.
8E-	.	8a-	.
8E-J	.	8dJ	.
!!LO:LB:g=z
=207	=207	=207	=207
8r	[2EE-	8e-L	.
8E-L	.	8g	.
8E-	.	8B-)	.
8E-J	.	(8B-J	.
=208	=208	=208	=208
8E-L	2EE-]	8A-L	.
8E-	.	8d	.
8E-	.	8f	.
8E-J	.	8dJ	.
=209	=209	=209	=209
8r	[2EE-	8e-L	.
8E-L	.	8g	.
8E-	.	8B-)	.
8E-J	.	(8B-J	.
=210	=210	=210	=210
8E-L	2EE-]	8A-L	.
8E-	.	8d	.
8E-	.	8f	.
8E-J	.	8dJ	.
*v	*v	*	*
=211	=211	=211
4EE-	4e-)	.
8r;	8r;	.
8r	8a-	.
=212	=212	=212
2r	8a-L	.
.	8a-	.
.	8a-	.
.	8a-J	.
=213	=213	=213
*^	*	*
8r	[2FF	(4a-	.
8FL	.	.	.
8F	.	8ccL)	.
8FJ	.	8fJ	.
=214	=214	=214	=214
*	*	*^	*
8r	2FF]	(8enL	2d-	.
8GL	.	8g	.	.
8G	.	8b-	.	.
8GJ	.	8eJ	.	.
=215	=215	=215	=215	=215
8r	[2FF	8fL	4c	.
8A-L	.	8a-	.	.
8A-	.	8c)	4ryy	.
8A-J	.	8cJ	.	.
!!LO:LB:g=z
=216	=216	=216	=216	=216
8r	2FF]	(8enL	2d-	.
8GL	.	8g	.	.
8G	.	8b-	.	.
8GJ	.	8eJ	.	.
=217	=217	=217	=217	=217
8r	[2FF	8fL	4c	.
8A-L	.	8a-	.	.
8A-	.	8c)	4ryy	.
8A-J	.	8cJ	.	.
=218	=218	=218	=218	=218
8r	2FF]	(8enL	2d-	.
8GL	.	8g	.	.
8G	.	8b-	.	.
8GJ	.	8eJ	.	.
*v	*v	*	*	*
*	*v	*v	*
=219	=219	=219
4FF 4A-	4c 4f)	.
8r;	8r;	.
!	!	!LO:DY:b=2:rj
8BBB- 8BB-	8r	f
=220	=220	=220
8BBB- 8BB-L	4r	.
8BBB- 8BB-	.	.
8BBB- 8BB-	8r	.
8BBB- 8BB-J	(16cccLL	f
.	16bb-JJ	.
=221	=221	=221
(4BBB- 4BB-	16aa-LL	.
.	16gg	.
.	16ff	.
.	16ee-JJ	.
8FL)	16ddLL	.
.	16ee-	.
(8AA-J	16ff	.
.	16ddJJ	.
=222	=222	=222
8GGL	16ee-LL	.
.	16gg	.
8BB-	16ff	.
.	16ee-JJ	.
8E-	16ddLL	.
.	16cc	.
8GGJ	16b-	.
.	16ee-JJ	.
=223	=223	=223
8AA-L	16ddLL	.
.	16ee-	.
8D	16ff	.
.	16ggJJ	.
8F)	16aa-LL	.
.	16ff	.
(8AA-J	16ee-	.
.	16ddJJ	.
!!LO:LB:g=z
=224	=224	=224
8GGL	16ee-LL	.
.	16gg	.
8BB-	16ff	.
.	16ee-JJ	.
8E-	16ddLL	.
.	16cc	.
8GGJ	16b-	.
.	16ee-JJ	.
=225	=225	=225
8AA-L	16ddLL	.
.	16ee-	.
8D	16ff	.
.	16ggJJ	.
8F)	16aa-LL	.
.	16ff	.
(8AA-J	16ee-	.
.	16ddJJ	.
=226	=226	=226
8GGL<	16ee-LL	.
.	16ff	.
8BB-	16gg	.
.	16ffJJ	.
8E-	16ee-LL	.
.	16dd	.
8GJ)	16cc	.
.	16b-JJ	.
=227	=227	=227
(8AA-L	16ccLL	.
.	16ee-	.
8C	16ff	.
.	16ee-JJ	.
8F	16ddLL	.
.	16cc	.
8A-J)	16b-	.
.	16a-JJ	.
=228	=228	=228
8B-L	16gLL	.
.	16b-	.
8B-	16g	.
.	16b-JJ	.
8B-	16fLL	.
.	16a-	.
8B-J	16f	.
.	16a-JJ	.
=229	=229	=229
8BB-L	16e-LL	.
.	16g	.
8BB-	16e-	.
.	16gJJ	.
8BB-	16dLL	.
.	16f	.
8BB-J	16d	.
.	16fJJ	.
=230	=230	=230
8E-'L	16e-LL	.
.	16B-	.
8G'J	16e-	.
.	16B-JJ	.
8E-'L	16e-LL	.
.	16B-	.
8G'J	16e-	.
.	16B-JJ	.
!!LO:LB:g=z
=231	=231	=231
4E-	4e-)	.
4r	8r	.
!	!	!LO:DY:b=2:rj
.	(8gg	pf
=232	=232	=232
2r	8aa-L	.
.	8aan	.
.	8bb-	.
.	8bbnJ	.
*clefG2	*	*
=233	=233	=233
*^	*	*
!	!	!	!LO:DY:b=2:rj
8r	2e-	8cccL	pf
(8gL	.	8ggJ)	.
8cc	.	8r	.
8gJ)	.	(8gg	.
=234	=234	=234	=234
8r	2d	8ggL	.
(8gL	.	8ff	.
8bn	.	8aa-	.
8gJ)	.	8ffJ	.
=235	=235	=235	=235
8r	2c	8ffL	.
(8e-L	.	8ee-J)	.
8g	.	8r	.
8e-J)	.	(8ee-	.
=236	=236	=236	=236
8r	2B-	8ff-L	<
(8d-L	.	8ffn	.
8e-	.	8gg-	.
8d-J)	.	8ggnJ	[[
*clefF4	*	*	*
=237	=237	=237	=237
8r	2A-	8aa-L	.
(<8cL	.	8ee-J)	.
8e-	.	8r	.
8cJ)	.	(8ee-	.
=238	=238	=238	=238
8re	2G	8ee-L	.
(<8B-L	.	8dd-	.
8e-	.	8ff	.
8B-J)	.	8dd-J	.
*v	*v	*	*
!!LO:LB:g=z
=239	=239	=239
(8A-L	8cc)	f
8e-	(4ccc	.
8G	.	.
8enJ	[8bb-	.
=240	=240	=240
8FL	8bb-]	.
8f	4aa-	.
8G	.	.
8B-J	[8gg	.
=241	=241	=241
8A-L	8gg]	.
8c	4ff	.
8An	.	.
8fJ	[8ee-	.
=242	=242	=242
8B-L	8ee-]	.
8f	4dd	.
8c	.	.
8e-J	[8cc	.
*clefG2	*	*
=243	=243	=243
8dL	8cc]	.
8f	4b-	.
8e-	.	.
8g-J	[8an	.
=244	=244	=244
8dL	8a]	.
8f	4b-/	.
8e-	.	.
8g-J	[8an	.
=245	=245	=245
8dL	8a]	.
8f	4b-/	.
8e-	.	.
8g-J	8an	.
=246	=246	=246
4d 4f)	(8b-L)	.
.	8bb-)	.
4r	8bb-J	.
.	8bb-	fz
=247	=247	=247
2r	8bb-L	.
.	8bb-	.
.	8bb-J	.
.	8aan 8bb-	fz
!!LO:LB:g=z
=248	=248	=248
4r	8aan 8bb-L	.
.	8aa 8bb-	.
8r	8aa 8bb-J	.
(8b-	8aa- 8bb-	fz
=249	=249	=249
8cc-L	8aa- 8bb-L	.
8ccn	8aa- 8bb-	.
8dd-	8aa- 8bb-J	.
8ddnJ	8aa- 8bb-	fz
=250	=250	=250
4.ee-)	8gg 8bb-L	.
.	8gg 8bb-	.
.	8gg 8bb-J	ff
*clefF4	*	*
8E- 8G 8B- 8e-	8b- 8ee- 8gg	.
=251	=251	=251
8E- 8G 8B- 8e-L	8b- 8ee- 8ggL	.
8E- 8G 8B- 8e-	8b- 8ee- 8gg	.
8E- 8G 8B- 8e-	8b- 8ee- 8gg	.
8E- 8G 8B- 8e-J	8b- 8ee- 8ggJ	.
=252	=252	=252
!	!	!LO:DY:rj
4F 4A- [4B- ((4d	4a- [4b- ((4dd	fz
8G' 8B-'] 8e-'))	8g' 8b-'] 8ee-'))	.
8r	8ee- 8gg	.
=253	=253	=253
!	!	!LO:DY:rj
4B- (4f	4dd 4ff (4aa-	fz
8e-' 8g')	8ee-' 8gg')	.
8r	8gg 8bb-	.
=254	=254	=254
!	!	!LO:DY:rj
4B- (4f	4ff 4aa- (4ddd	fz
8e-' 8g')	8gg 8eee-)	.
*clefG2	*	*
8d- 8b-	8gg 8eeen	.
=255	=255	=255
[2d- 2b-	2gg 2eeen	.
!!LO:LB:g=z
=256	=256	=256
*^	*^	*
2a-	(4d-X]	(4fff	2ff	.
.	4c-)	4eee-X)	.	.
*v	*v	*	*	*
*	*v	*v	*
=257	=257	=257
2B-; 2a-;	2ff; 2ddd;	.
=258	=258	=258
4cn; 4g;	4ee-; 4eee-;	.
!	!	!LO:DY:rj
4gg	4ee- 4bbn	p
=259	=259	=259
(2gg	[2ee- (2bbn	.
=260	=260	=260
4aa-)	4ee-] 4ccc)	.
4A- 4a-	4een 4ccc	f
=261	=261	=261
*	*^	*
[2A- [2a-	[2ccc	2een	.
=262	=262	=262	=262
2A-_ 2a-_	2ccc_	(8ggL	.
.	.	8ff	.
.	.	8aa-	.
.	.	8ggJ	.
=263	=263	=263	=263
2A-_ 2d 2a-_	4ccc]	8bb-L	.
.	.	8aa-)	.
.	(8ddd-L	8bb-	.
.	8cccJ	8aa-J	.
*	*v	*v	*
=264	=264	=264
2A-] 2a-]	8gg 8bbnL	.
.	8aa- 8ccc	.
.	8gg 8bb-	.
.	8ff 8aa-J	.
=265	=265	=265
[2B- [2b-	4.ee- 4.gg)	.
.	8gg (8bb-	.
!!LO:LB:g=z
=266	=266	=266
2B-] 2b-]	8gg 8bb-L	.
.	8ff 8aa-	.
.	8ee- 8gg	.
.	8dd 8ffJ	.
=267	=267	=267
4ryy	(16ee-LL)	f
.	16gg	.
.	16ee-	.
.	16b-JJ	.
8ryy	16gLL	.
.	16e-JJ	.
*clefF4	*	*
16E-LL	8ryy	.
16e-JJ	.	.
=268	=268	=268
2ryy	16ddLL	.
.	16aa-	.
.	16ff	.
.	16ddJJ	.
.	16b-LL	.
.	16a-JJ	.
.	16d<LL<	.
.	16f<JJ)	.
=269	=269	=269
2ryy	(16ee-LL	.
.	16gg	.
.	16ee-	.
.	16b-JJ	.
.	16gLL	.
.	16e-JJ	.
.	16E-<LL<	.
.	16e-<JJ	.
=270	=270	=270
2ryy	16ddLL	.
.	16aa-	.
.	16ff	.
.	16ddJJ	.
.	16b-LL	.
.	16a-JJ	.
.	16d<LL<	.
.	16f<JJ)	.
=271	=271	=271
2ryy	(16bb-LL>	mf
.	16ee-JJ	.
.	16gLL	.
.	16ee-JJ	.
.	16cccLL>	.
.	16ee-JJ	.
.	16a-LL	.
.	16ee-JJ	.
!!LO:LB:g=z
=272	=272	=272
2ryy	16dddLL>	.
.	16ee-JJ	.
.	16b-LL	.
.	16ee-JJ	.
.	16eee-LL>	.
.	16ee-JJ	.
.	16ccLL	.
.	16ee-JJ)	.
=273	=273	=273
2ryy	(16bb-LL>	.
.	16ee-JJ	.
.	16gLL	.
.	16ee-JJ	.
.	16cccLL>	.
.	16ee-JJ	.
.	16a-LL	.
.	16ee-JJ	.
=274	=274	=274
2ryy	16dddLL>	.
.	16ee-JJ	.
.	16b-LL	.
.	16ee-JJ	.
.	16eee-LL>	.
.	16ee-JJ	.
.	16ccLL	.
.	16ee-JJ)	.
=275	=275	=275
2ryy	(16ddd-LL>	<
.	16ee-JJ	.
.	16gLL	.
.	16ee-JJ	.
.	16cccLL>	.
.	16ee-JJ	.
.	16a-LL	.
.	16ee-JJ	.
=276	=276	=276
2ryy	16bb-LL>	.
.	16ccJJ	.
.	16enLL<	.
.	16ccJJ	.
.	16aa-LL>	.
.	16ccJJ	.
.	16fLL<	.
.	16ccJJ)	.
=277	=277	=277
2ryy	(16eenLL>	f
.	16ccJJ	.
.	16gLL<	.
.	16ccJJ	.
.	16ffLL>	.
.	16ccJJ	.
.	16a-LL	.
.	16ccJJ	.
!!LO:LB:g=z
=278	=278	=278
2ryy	16cccLL>	.
.	16ee-XJJ	.
.	16anLL	.
.	16ee-JJ	.
.	16eee-LL>	.
.	16ee-JJ	.
.	16aLL	.
.	16ee-JJ)	.
=279	=279	=279
4ryy	(16dddLL>	ff
.	16ddJJ	.
.	16b-LL<	.
.	16B-JJ	.
8ryy	16bb-LL>	.
.	16b-JJ	.
16f>LL	8ryy	.
16FJJ	.	.
=280	=280	=280
8ryy	16ffLL>	.
.	16fJJ	.
16dLL	8ryy	.
16DJJ	.	.
8ryy	16ddLL	.
.	16dJJ	.
16B-LL	8ryy	.
16BB-JJ	.	.
*	*clefF4	*clefF4
=281	=281	=281
4.BB-;<	4.BBB-;)	.
!	!	!LO:DY:b=2
8A-	8r	p
=282	=282	=282
8A-L	4r	.
8A-	.	.
8A-	8r	.
*	*clefG2	*clefG2
!	!	!LO:DY:rj
8A-J	8f'	fz
=283	=283	=283
8A-L	(8B-L	.
8A-	8c-	.
8A-	8B-'J)	.
8A-J	8a-'	f
=284	=284	=284
8A-L	(8dL	.
8A-	8e-	.
8A-	8d'J)	.
8A-J	8cc-'	fz
!!LO:LB:g=z
=285	=285	=285
8A-L	(8fL	.
8A-	8g-	.
8A-	8f'J)	fz
8A-J	8ddn'	.
=286	=286	=286
8A-L	(8b-L	.
8A-	8cc-	.
8A-	8b-'J)	.
8A-J	8bb-'	fz
=287	=287	=287
8G	8r	.
8r	8gg 8bb-	.
8A-	8r	.
8r	8ff 8aa-	.
=288	=288	=288
8B-	8r	.
8r	8ee- 8gg	.
8BB-	8r	.
8r	8dd 8ff	.
=289	=289	=289
4E-	8ee-	.
.	8a-L	p
4r	8a-	.
.	8a-J	.
=290	=290	=290
4r	8a-L	.
.	8a-	.
8r	8a-	.
!	!	!LO:DY:rj:b=2
8F'	8a-J	fz
=291	=291	=291
(8BB-L	[2a-TT	.
8C-	.	.
8BB-'J)	.	.
!	!	!LO:DY:rj:b=2
8A-'	.	fz
=292	=292	=292
(8DL	2a-_TTT	.
8E-	.	.
8D'J)	.	.
!	!	!LO:DY:rj:b=2
8c-'	.	fz
!!LO:LB:g=z
=293	=293	=293
(8FL	2a-_TTT	<
8G-	.	.
8F'J)	.	.
!	!	!LO:DY:b=2
8d'	.	fz
=294	=294	=294
(8B-L	(<2a-]TTT	.
8c-	.	.
8B-'J)	.	.
!	!	!LO:DY:b=2:rj
8d'	.	fz
=295	=295	=295
!	!	!LO:DY:rj
8e-'L	(16g)LL	f
.	16ee-	.
8E-'	16g	.
.	16ee-JJ	.
8e-'	16a-LL	.
.	16dd	.
8E-'J	16a-	.
.	16ddJJ	.
=296	=296	=296
8e-'L	16ddLL	.
.	16aa-	.
8E-'	16dd	.
.	16aa-JJ	.
8e-'	16ee-LL	.
.	16gg	.
8E-'J	16ee-	.
.	16ggJJ)	.
=297	=297	=297
8e-'L	(16aa-LL	.
.	16ccc	.
8E-'	16aa-	.
.	16cccJJ	.
8e-'	16ggLL	.
.	16bb-	.
8E-'J	16gg	.
.	16bb-JJ	.
=298	=298	=298
8e-'L	16aa-LL	.
.	16ddd	.
8E-'	16aa-	.
.	16dddJJ	.
8e-'	16ggLL	.
.	16eee-	.
8E-'J	16gg	.
.	16eee-JJ	.
=299	=299	=299
4A-' 4e-'	4aa-' 4ccc')	.
4r	4r	.
!!LO:LB:g=z
=300	=300	=300
!	!	!LO:DY:rj
4BB-' 4B-'	4f' 4a-' 4dd'	fz
4r	4r	.
=301	=301	=301
!	!	!LO:DY:rj
(16e-LL	4g 4b- 4ee-	ff
16d	.	.
16e-	.	.
16dJJ	.	.
16e-LL	8r	.
16d	.	.
16e-	8aa- (8ccc	.
16dJJ	.	.
=302	=302	=302
16e-LL	8gg 8bb-L	.
16d	.	.
16e-	8ff 8aa-	.
16dJJ	.	.
16e-LL	8ee- 8gg	.
16d	.	.
16e-	8dd 8ffJ	.
16dJJ	.	.
=303	=303	=303
4e-)	(16ee-LL)	.
.	16dd	.
.	16ee-	.
.	16ddJJ	.
8r	16ee-LL	.
.	16dd	.
8A- (8c	16ee-	.
.	16ddJJ	.
=304	=304	=304
8G 8B-L	16ee-LL	.
.	16dd	.
8A- 8c	16ee-	.
.	16ddJJ	.
8G 8B-	16ee-LL	.
.	16dd	.
8F 8A-J	16ee-	.
.	16ddJJ	.
=305	=305	=305
4E-' 4G')	4ee-')	.
4r	4r	.
=306	=306	=306
4EE-' 4GG' 4BB-' 4E-'	4gg' 4bb-' 4eee-'	fz
4r	4r	.
=307	=307	=307
!	!	!LO:DY:a
4EE-' 4GG' 4BB-' 4E-'	4G' 4B-' 4e-'	fz
4r	4r	.
==	==	==
*-	*-	*-
!!!RDF**kern: > = above
!!!RDF**kern: < = below
!!!PPR: Universal Edition 1
!!!PTL: Haydn Piano Sonatas, Vol. 4, No. 34
!!!YOY: 1901
!!!ONB: Stich und Druck von Jos. Eberle & Co. Wien VII. Seidengasse 3-9
!!!ONM-ue: IV:34.3
!!!YEC: 2021 Craig Stuart Sapp
!!!YEM: Licence: (CC BY-NC-SA 4.0) https://creativecommons.org/licenses/by-nc-sa/4.0
!!!YER: 2021
!!!ENC: Craig Stuart Sapp
!!!END: 2008/07/08
!!!EED: Craig Stuart Sapp
!!!EEV: 2021/02/03
!!!YEC: 2021 Craig Stuart Sapp
!!!URL: https://github.com/craigsapp/haydn-keyboard-sonatas
!!!URL-vhv: https://verovio.humdrum.org?file=haydn/sonatas/sonata62-3.krn
!!!URL-pdf: https://github.com/craigsapp/haydn-keyboard-sonatas/raw/master/reference-edition/sonata62-3.pdf
!!!title: @{OTL}, mvmt. @{OMV} (@{SCT}), UE @ONM-ue
